packages/katcn/src/icons/svg/camera.svg

<svg width="24" height="25" viewBox="0 0 24 25" fill="none" xmlns="http://www.w3.org/2000/svg">
<path d="M18.5 21.012H5.5C3.6 21.012 2 19.512 2 17.512V10.212C2 8.31201 3.5 6.81201 5.5 6.81201H6.7L7.6 5.61201C8.2 4.81201 9.2 4.31201 10.2 4.31201H13.7C14.8 4.31201 15.7 4.81201 16.4 5.61201L17.3 6.81201H18.5C20.5 6.81201 22 8.31201 22 10.212V17.612C22 19.512 20.5 21.012 18.5 21.012ZM5.5 8.81201C4.7 8.81201 4 9.41201 4 10.212V17.612C4 18.412 4.7 19.112 5.5 19.112H18.6C19.4 19.112 20.1 18.412 20.1 17.612V10.212C20.1 9.41201 19.4 8.71201 18.6 8.71201H17C16.7 8.71201 16.4 8.61201 16.2 8.31201L15 6.81201C14.6 6.51201 14.2 6.31201 13.8 6.31201H10.2C9.8 6.31201 9.4 6.51201 9.1 6.81201L7.9 8.41201C7.7 8.61201 7.4 8.81201 7.1 8.81201H5.5Z" fill="black"/>
<path d="M12 17.812C9.60001 17.812 7.70001 15.912 7.70001 13.512C7.70001 11.112 9.60001 9.21201 12 9.21201C14.4 9.21201 16.3 11.112 16.3 13.512C16.3 15.812 14.4 17.812 12 17.812ZM12 11.212C10.7 11.212 9.70001 12.212 9.70001 13.512C9.70001 14.812 10.7 15.812 12 15.812C13.3 15.812 14.3 14.812 14.3 13.512C14.3 12.212 13.3 11.212 12 11.212Z" fill="black"/>
</svg>

<svg xmlns="http://www.w3.org/2000/svg" fill="none" viewBox="0 0 24 25"><path fill="#000" d="M18.5 21.012h-13c-1.9 0-3.5-1.5-3.5-3.5v-7.3c0-1.9 1.5-3.4 3.5-3.4h1.2l.9-1.2c.6-.8 1.6-1.3 2.6-1.3h3.5c1.1 0 2 .5 2.7 1.3l.9 1.2h1.2c2 0 3.5 1.5 3.5 3.4v7.4c0 1.9-1.5 3.4-3.5 3.4m-13-12.2c-.8 0-1.5.6-1.5 1.4v7.4c0 .8.7 1.5 1.5 1.5h13.1c.8 0 1.5-.7 1.5-1.5v-7.4c0-.8-.7-1.5-1.5-1.5H17c-.3 0-.6-.1-.8-.4l-1.2-1.5c-.4-.3-.8-.5-1.2-.5h-3.6c-.4 0-.8.2-1.1.5l-1.2 1.6c-.2.2-.5.4-.8.4z"/><path fill="#000" d="M12 17.812c-2.4 0-4.3-1.9-4.3-4.3s1.9-4.3 4.3-4.3 4.3 1.9 4.3 4.3c0 2.3-1.9 4.3-4.3 4.3m0-6.6c-1.3 0-2.3 1-2.3 2.3s1 2.3 2.3 2.3 2.3-1 2.3-2.3-1-2.3-2.3-2.3"/></svg>
